X:89
T: AN DEM SCHOENSTEN FRUEHLINGSMORGEN
N: B0117
O: Europa, Mitteleuropa, Deutschland
R: Ballade, Romanze
M: 4/4
L: 1/8
K: Bb
FF | B2d3dcB | Ace2z2
dc | B3BcBcd | B4z2
BA | G3GF2GA | cBB2z2
BA | G3GF2GA | B4z2
B2 | A2c4BA | B2d4
cB | ABcdecBA | B4z2

@@@ Tune index: 1892
